X: 406
P: Longways for as many as will
M: 6/4
L: 1/4
K: G
(BG)B d2g | d3 B2e | (de)B (Ac)B | A3- A2G |\
f |\
(gf)g e2e | (fe)f ^d2d | (eB)G (Ac)(B/A/) | B3- B2B |\
(Bd)B d2d | (eg)e f2f | (gd)B (Bd)A | G3- G2 |]

